X: 4
T: Reel des Acadiens
I: RJ R-125 A reel
C: E. Arsenault
M: C|
R: reel
K: A
af |\
"A"eece AAce | fece "D"feaf | "A"eece "D"feaf | "A"ecAc "E7"B2af |
"A"eece AAce | fece "D"feaf | "A"eece "D"feaf | "A"ec"E7"Bc "A"A2 :|
|: zA |\
"A"ABcd eeea | "D"feaf "E7"ecBc | "A"ABcd "(F#m)"eeea | "B7"fecA "E7"B2BB |
"A"ABcd eeea | "D"feaf "E7"ecBc | "A"ABcd "(F#m)"eeaf | "E7"ecBc "A"A2 :|
